li/brand-digitalocean.svg

<svg role="img" focusable="false" aria-hidden="true" xmlns="http://www.w3.org/2000/svg" viewBox="0 0 14 14" height="1em" width="1em">
  <path d="m 1.4182824,10.682519 -0.002,0 0,-1.4924871 1.4924875,0 0,1.4924871 1.7814852,0 0,-2.3174801 2.3174806,0 0,2.3099801 C 9.4712151,10.672019 11.372699,8.2335399 10.433707,5.6420619 10.08471,4.6820699 9.3187164,3.9170759 8.3587244,3.5690789 5.7637461,2.6275869 3.3237665,4.5340709 3.3237665,7.0000499 l -2.3234806,0 c 0,-3.927967 3.7949683,-6.98794103 7.9119339,-5.702452 1.7999852,0.562495 3.2279732,1.990983 3.7899682,3.789968 C 13.987177,9.2050319 10.929203,13 7.0002357,13 l 0,-2.317481 -2.3114806,0 0,1.779985 -1.7799852,0 0,-1.779985 -1.4919875,0 0.001,0 z"/>
</svg>

<svg aria-hidden="true" xmlns="http://www.w3.org/2000/svg" viewBox="0 0 14 14" height="1em" width="1em">
  <path d="M1.418 10.683h-.002V9.19H2.91v1.493h1.78V8.365h2.318v2.31c2.463-.003 4.365-2.441 3.426-5.033A3.478 3.478 0 0 0 8.359 3.57C5.764 2.628 3.324 4.534 3.324 7H1C1 3.072 4.795.012 8.912 1.298a5.8 5.8 0 0 1 3.79 3.79C13.987 9.205 10.93 13 7 13v-2.317H4.69v1.78H2.91v-1.78H1.417z"/>
</svg>
